src/images/wave2.svg

<svg xmlns="http://www.w3.org/2000/svg" viewBox="0 0 1440 320"><path fill="#08F7FE" d="M0 0v256h36.9V64h36.9v64h37V64h36.9v192h36.9V96h36.9v64h37V32h36.9v192h36.9v64h36.9V128h73.9V96H480V32h36.9v160h36.9v-32h37V96h73.8v192h36.9V160h37v128h36.9V128h36.9v64h36.9v-64h37v32h36.9v96h73.8V96h36.9V32h37v128h36.9V32h36.9v64h36.9v32h37v128h36.9v64h36.9V64h36.9v64h37v128h36.9v-64h36.9V0H0z"/></svg>

<?xml version="1.0" standalone="no"?><svg xmlns="http://www.w3.org/2000/svg" viewBox="0 0 1440 320"><path fill="#08F7FE" fill-opacity="1" d="M0,0L0,256L36.9,256L36.9,64L73.8,64L73.8,128L110.8,128L110.8,64L147.7,64L147.7,256L184.6,256L184.6,96L221.5,96L221.5,160L258.5,160L258.5,32L295.4,32L295.4,224L332.3,224L332.3,288L369.2,288L369.2,128L406.2,128L406.2,128L443.1,128L443.1,96L480,96L480,32L516.9,32L516.9,192L553.8,192L553.8,160L590.8,160L590.8,96L627.7,96L627.7,96L664.6,96L664.6,288L701.5,288L701.5,160L738.5,160L738.5,288L775.4,288L775.4,128L812.3,128L812.3,192L849.2,192L849.2,128L886.2,128L886.2,160L923.1,160L923.1,256L960,256L960,256L996.9,256L996.9,96L1033.8,96L1033.8,32L1070.8,32L1070.8,160L1107.7,160L1107.7,32L1144.6,32L1144.6,96L1181.5,96L1181.5,128L1218.5,128L1218.5,256L1255.4,256L1255.4,320L1292.3,320L1292.3,64L1329.2,64L1329.2,128L1366.2,128L1366.2,256L1403.1,256L1403.1,192L1440,192L1440,0L1403.1,0L1403.1,0L1366.2,0L1366.2,0L1329.2,0L1329.2,0L1292.3,0L1292.3,0L1255.4,0L1255.4,0L1218.5,0L1218.5,0L1181.5,0L1181.5,0L1144.6,0L1144.6,0L1107.7,0L1107.7,0L1070.8,0L1070.8,0L1033.8,0L1033.8,0L996.9,0L996.9,0L960,0L960,0L923.1,0L923.1,0L886.2,0L886.2,0L849.2,0L849.2,0L812.3,0L812.3,0L775.4,0L775.4,0L738.5,0L738.5,0L701.5,0L701.5,0L664.6,0L664.6,0L627.7,0L627.7,0L590.8,0L590.8,0L553.8,0L553.8,0L516.9,0L516.9,0L480,0L480,0L443.1,0L443.1,0L406.2,0L406.2,0L369.2,0L369.2,0L332.3,0L332.3,0L295.4,0L295.4,0L258.5,0L258.5,0L221.5,0L221.5,0L184.6,0L184.6,0L147.7,0L147.7,0L110.8,0L110.8,0L73.8,0L73.8,0L36.9,0L36.9,0L0,0L0,0Z"></path></svg>
